src/img/icons/icon_zoom.svg

<svg 
 xmlns="http://www.w3.org/2000/svg"
 xmlns:xlink="http://www.w3.org/1999/xlink"
 width="15px" height="15px">
<defs>
<filter id="Filter_0">
    <feFlood flood-color="rgb(255, 255, 255)" flood-opacity="1" result="floodOut" />
    <feComposite operator="atop" in="floodOut" in2="SourceGraphic" result="compOut" />
    <feBlend mode="normal" in="compOut" in2="SourceGraphic" />
</filter>

</defs>
<g filter="url(#Filter_0)">
<path fill-rule="evenodd"  fill="rgb(0, 0, 0)"
 d="M13.977,12.501 L11.183,9.707 C11.856,8.735 12.193,7.651 12.193,6.456 C12.193,5.679 12.042,4.937 11.741,4.228 C11.439,3.519 11.032,2.908 10.519,2.395 C10.005,1.881 9.394,1.474 8.686,1.172 C7.977,0.871 7.234,0.720 6.457,0.720 C5.680,0.720 4.938,0.871 4.229,1.172 C3.520,1.474 2.909,1.881 2.396,2.395 C1.882,2.908 1.475,3.519 1.173,4.228 C0.872,4.937 0.721,5.679 0.721,6.456 C0.721,7.233 0.872,7.976 1.173,8.685 C1.475,9.393 1.882,10.004 2.396,10.518 C2.909,11.031 3.520,11.438 4.229,11.740 C4.938,12.042 5.680,12.192 6.457,12.192 C7.652,12.192 8.736,11.856 9.708,11.182 L12.502,13.968 C12.698,14.174 12.942,14.277 13.236,14.277 C13.518,14.277 13.763,14.174 13.969,13.968 C14.175,13.762 14.278,13.517 14.278,13.235 C14.279,12.947 14.178,12.702 13.977,12.501 ZM9.036,9.035 C8.321,9.749 7.462,10.106 6.457,10.106 C5.452,10.106 4.593,9.749 3.879,9.035 C3.164,8.320 2.807,7.461 2.807,6.456 C2.807,5.451 3.164,4.592 3.879,3.878 C4.593,3.163 5.452,2.806 6.457,2.806 C7.462,2.806 8.321,3.163 9.036,3.878 C9.750,4.592 10.107,5.451 10.107,6.456 C10.107,7.461 9.750,8.320 9.036,9.035 Z"/>
</g>
</svg>

<svg xmlns="http://www.w3.org/2000/svg" width="15" height="15"><defs><filter id="a"><feFlood flood-color="#FFF" flood-opacity="1" result="floodOut"/><feComposite operator="atop" in="floodOut" in2="SourceGraphic" result="compOut"/><feBlend in="compOut" in2="SourceGraphic"/></filter></defs><g filter="url(#a)"><path fill-rule="evenodd" d="M13.98 12.5l-2.8-2.8a5.58 5.58 0 001.01-3.24 5.64 5.64 0 00-1.67-4.06 5.75 5.75 0 00-8.12 8.12 5.74 5.74 0 007.3.66l2.8 2.79c.2.2.44.3.74.3a1 1 0 00.73-.3 1 1 0 00.3-.74 1 1 0 00-.3-.73zM9.04 9.04a3.52 3.52 0 01-2.58 1.07c-1 0-1.87-.36-2.58-1.07A3.51 3.51 0 012.8 6.46c0-1 .35-1.87 1.07-2.58A3.51 3.51 0 016.46 2.8c1 0 1.86.35 2.58 1.07a3.51 3.51 0 011.07 2.58c0 1-.36 1.86-1.07 2.58z"/></g></svg>
